icons/douban-line.svg

<svg width="24" height="24" fill="none" xmlns="http://www.w3.org/2000/svg"><g clip-path="url(#a)"><path d="M15.273 15H5V7h14v8h-1.624l-1.3 4H21v2H3v-2h4.612L6.8 16.5l1.902-.618L9.715 19h4.259l1.3-4h-.001ZM3.5 3h17v2h-17V3ZM7 9v4h10V9H7Z" /></g><defs><clipPath id="a"><path fill="#fff" d="M0 0h24v24H0z"/></clipPath></defs></svg>

<svg xmlns="http://www.w3.org/2000/svg" width="24" height="24" fill="none"><g clip-path="url(#a)"><g><path fill="#121212" d="M15.273 15H5V7H19V15H17.376L16.076 19H21V21H3V19H7.612L6.8 16.5L8.702 15.882L9.715 19H13.974L15.274 15H15.273ZM3.5 3H20.5V5H3.5V3ZM7 9V13H17V9H7Z"/></g></g><defs><clipPath id="a"><rect width="24" height="24" fill="white"/></clipPath></defs></svg>
